gnomExtensions/.local/share/gnome-shell/extensions/Bluetooth-Battery-Meter@maniacx.github.com/icons/hicolor/scalable/actions/bbm-earbuds-wingtip2-right-symbolic.svg

<svg height="16" viewBox="0 0 16 16" width="16" xmlns="http://www.w3.org/2000/svg"><path d="m6.858317 1.6c2.717334 0 4.961922 3.131598 4.961922 6.971329 0 1.562882-.351769 3.254297-.827657 3.690122v2.138549h-.571314v-2.146381c-.289663-.205848-.501256-.65416-.530224-1.103502.905758-.255979 1.555475-1.101294 1.555475-2.066163 0-.590725-.236205-1.122399-.630033-1.535911-.196898-2.638595-1.930372-4.983447-3.899479-4.983447-1.181446 0-1.733526.887707-1.733526 2.522036l4.707563 2.480974c.689176.354429 1.003724.925623 1.003724 1.516348 0 .886103-.728088 1.614193-1.614193 1.614193-.433194 0-.729842-.119313-1.340251-.434375l-2.361603-1.29916c-1.02395-.571043-1.39896-1.26058-1.39896-2.717724v-1.299162c0-2.067553.90639-3.347726 2.678556-3.347726zm2.461384 6.458703c-.551328 0-1.003722.45421-1.003722 1.025251 0 .571042.452394 1.023286 1.003722 1.023286.571043 0 1.023317-.452244 1.023317-1.023286 0-.551358-.452274-1.025251-1.023317-1.025251zm0 .393283c.35443 0 .630033.277538.630033.631968 0 .354429-.275603.630033-.630033.630033-.334745 0-.61044-.275604-.61044-.630033 0-.334746.275695-.631968.61044-.631968z" fill="#2e3436"/></svg>

<?xml version="1.0" encoding="UTF-8"?>
<svg height="16px" viewBox="0 0 16 16" width="16px" xmlns="http://www.w3.org/2000/svg">
    <path d="M 6.858317,1.6 C 9.575651,1.6 11.820239,4.731598 11.820239,8.571329 C 11.820239,10.134211 11.46847,11.825626 10.992582,12.261451 V 14.4 H 10.421268 V 12.253619 C 10.131605,12.047771 9.920012,11.599459 9.891044,11.150117 C 10.796802,10.894138 11.446519,10.048823 11.446519,9.083954 C 11.446519,8.493229 11.210314,7.961555 10.816486,7.548043 C 10.619588,4.909448 8.886114,2.564596 6.917007,2.564596 C 5.735561,2.564596 5.183481,3.452303 5.183481,5.086632 L 9.891044,7.567606 C 10.58022,7.922035 10.894768,8.493229 10.894768,9.083954 C 10.894768,9.970057 10.16668,10.698147 9.280575,10.698147 C 8.847381,10.698147 8.550733,10.578834 7.940324,10.263772 L 5.578721,8.964612 C 4.554771,8.393569 4.179761,7.704032 4.179761,6.246888 V 4.947726 C 4.179761,2.880173 5.086151,1.6 6.858317,1.6 Z M 9.319701,8.058703 C 8.768373,8.058703 8.315979,8.512913 8.315979,9.083954 C 8.315979,9.654996 8.768373,10.10724 9.319701,10.10724 C 9.890744,10.10724 10.343018,9.654996 10.343018,9.083954 C 10.343018,8.532596 9.890744,8.058703 9.319701,8.058703 Z M 9.319701,8.451986 C 9.674131,8.451986 9.949734,8.729524 9.949734,9.083954 C 9.949734,9.438383 9.674131,9.713987 9.319701,9.713987 C 8.984956,9.713987 8.709261,9.438383 8.709261,9.083954 C 8.709261,8.749208 8.984956,8.451986 9.319701,8.451986 Z" fill="#2e3434"/>
</svg>
